!!!OTL: Wiedersehen an der Bahre.
!!!OTL-incipit: Ein Juengling wollt' zum Kampfe ziehn,
!!!ARE: Europa, Mitteleuropa, Deutschland (), Sachsen, Erzgebirge
!!!YOR: 3, S. 86
!!    1901 aufgezeichnet
!!!SCT: Q0056L
!!!TXL: @@DE
!!!YEM: Copyright 1995, estate of Helmut Schaffrath.
**kern	**text
*ICvox	*
*M4/4	*
*met(c)	*
*k[b-]	*
*F:	*
!LO:TX:a:t=135 Erʒgebirge 1901	!
{8f	Ein
=1	=1
4f	Jüngling
4a	.
4.cc	wollt'
8a	ʒum
=2	=2
4b-	Kamp-
4b-	-fe
4.g}	ʒiehn,
{8g	ſein
=3	=3
4g	Lieb-
4dd	-chen
4cc	das
4b-	tat
=4	=4
4b-	wei-
2a	-nen.
8r}	.
{8a	Er
=5	=5
4a	ſchrieb
4cc	ihr
4.ff	nicht
8a	ein
=6	=6
4g	ein-
4b-	-ʒig
4.ee}	Mal,
{8dd	das
=7	=7
4cc	Her-
4dd	-ʒe
4.cc	wollt'
8b-	ihr
=8	=8
4b-	ſprin-
2a	-gen.
8r}	.
{8a	Er
=9	=9
4a	ſchrieb
4cc	ihr
4.ff	nicht
8a	ein
=10	=10
4g	ein-
4b-	-ʒig
4.ee}	Mal,
{8dd	das
=11	=11
4cc	Her-
4b-	-ʒe
4.a	wollt'
8g	ihr
=12	=12
2g	ſprin-
4f	-gen.
8r}	.
==	==
!!!AGN: Ballade, Abschied, Enttaeuschung, Tod, Selbstmord
!!!ONB: ESAC (Essen Associative Code) Database: BALLADE
!!!AMT: simple quadruple
!!!AIN: vox
!!!EED: Helmut Schaffrath
!!!EEV: 1.0
!!!source: Deutsche Volkslieder mit ihren Melodien. Herausgegeben vom Deutschen Volksliedarchiv. Dritter Band Balladen. Berlin 1954.
!!!page: 86
!!!ENC: Anna Maria Matuszewska
!!!EEV: 2025/02/18
*-	*-
